!!! OTL: Berkowitz202
!!! Chapter: 1
!!! Section: II
!!! Page: 46
!!! Mode: 
!!! Encoder: DJB
**kern
*staff1
*I"Piano
=1-
*clefC3
*k[b-]
*F:
*M3/4
4r
4r
4c\
=2
2a\
4c\
=3
2b-\
4a\
=4
4g\
4c\
4c\
=5
4d\
4c\
4a\
=6
4g\
4.d\
8e\
=7
4f\
4c\
4g\
=8
4c\
4a\
4d\
=9
4b-\
4.e\
8c\
=10
4g\
4f\
4r
==
*-
